icons/svg/16x16/check squircle/filled.svg

<svg xmlns="http://www.w3.org/2000/svg" width="16" height="16" viewBox="0 0 16 16">
  <path fill-rule="evenodd" d="M11.6836,6.7295 L7.6546,10.5045 C7.4626,10.6855 7.2166,10.7755 6.9716,10.7755 C6.7146,10.7755 6.4586,10.6775 6.2646,10.4825 L4.2646,8.4825 C3.8736,8.0915 3.8736,7.4585 4.2646,7.0685 C4.6546,6.6775 5.2876,6.6775 5.6786,7.0685 L6.9936,8.3835 L10.3166,5.2705 C10.7196,4.8945 11.3526,4.9145 11.7296,5.3165 C12.1076,5.7185 12.0866,6.3515 11.6836,6.7295 M14.6096,4.3285 C14.2906,2.8565 13.1436,1.7085 11.6716,1.3905 C10.4886,1.1345 9.2596,1.0005 7.9996,1.0005 C6.7406,1.0005 5.5116,1.1345 4.3286,1.3905 C2.8566,1.7085 1.7086,2.8565 1.3906,4.3285 C1.1346,5.5115 0.9996,6.7405 0.9996,8.0005 C0.9996,9.2595 1.1346,10.4885 1.3906,11.6715 C1.7086,13.1435 2.8556,14.2915 4.3286,14.6095 C5.5116,14.8655 6.7406,15.0005 7.9996,15.0005 C9.2596,15.0005 10.4886,14.8655 11.6716,14.6095 C13.1436,14.2915 14.2906,13.1435 14.6096,11.6715 C14.8656,10.4885 14.9996,9.2595 14.9996,8.0005 C14.9996,6.7405 14.8656,5.5115 14.6096,4.3285"/>
</svg>

<svg width="16" height="16" fill="none" xmlns="http://www.w3.org/2000/svg">
  <path fill-rule="evenodd" clip-rule="evenodd" d="M11.684 6.73l-4.03 3.774a.994.994 0 01-1.39-.022l-2-2A.999.999 0 115.68 7.068l1.315 1.315 3.323-3.113a1 1 0 111.367 1.459zm2.926-2.402a3.833 3.833 0 00-2.938-2.938A17.35 17.35 0 008 1c-1.26 0-2.488.134-3.671.39A3.832 3.832 0 001.39 4.328 17.35 17.35 0 001 8c0 1.26.135 2.489.39 3.671a3.83 3.83 0 002.94 2.939c1.183.256 2.412.39 3.67.39 1.26 0 2.49-.134 3.673-.39a3.833 3.833 0 002.938-2.938C14.866 10.488 15 9.258 15 8c0-1.26-.134-2.489-.39-3.672z" fill="#000"/>
</svg>
